X:19
L:1/8
M:4/4
K:C
 cB | A2 E2 C2 E2 | AGAB c2 BA | G2 D2 B,2 D2 | BcBA G2 cB |
 A2 E2 C2 E2 | AGAB c2 BA | G2 cc G2 c2 | BAGB A2 cB |
 A2 ab a2 e2 | abag a2 e2 | G2 ga g2 G2 | gag^f g2 g2 |
 A2 ag a2 e2 | abag a2 e2 | c2 A2 E2 A2 | BABc A2 |] 
 


